dist/img/logo-white.svg

<svg width="95" height="41" viewBox="0 0 95 41" fill="none" xmlns="http://www.w3.org/2000/svg">
<path d="M18.3536 35.6877C16.059 35.6935 13.7291 35.1338 11.5959 34.1102C9.46269 33.0837 7.53486 31.5758 5.98555 29.7315C4.43625 27.8872 3.2772 25.7008 2.61112 23.3665C2.27368 22.1979 2.07414 20.9887 1.98612 19.7766C1.90689 18.5615 1.95677 17.3407 2.12109 16.1344C2.29715 14.931 2.59351 13.7421 3.00725 12.5967C3.42979 11.4542 3.96089 10.3494 4.60937 9.31705C5.90339 7.2524 7.62582 5.46614 9.62994 4.11484C11.6311 2.76354 13.9052 1.84141 16.2438 1.43544C18.5795 1.03237 20.9768 1.13096 23.1805 1.76312C20.8888 1.77182 18.6705 2.11979 16.6136 2.84473C14.5596 3.56098 12.6699 4.6281 11.0472 5.9736C9.42748 7.322 8.06597 8.94007 7.05657 10.7408C6.55187 11.6398 6.12347 12.5793 5.80069 13.5536C5.46618 14.5251 5.22851 15.5255 5.08766 16.5433C4.93801 17.5582 4.89106 18.5876 4.93801 19.6113C4.97616 20.6378 5.12581 21.6556 5.35762 22.6589C5.8271 24.6656 6.68098 26.5939 7.8635 28.3309C9.04602 30.0679 10.566 31.6106 12.3412 32.8575C14.1135 34.116 16.1529 35.0555 18.3536 35.6877Z" fill="white"/>
<path d="M24.4539 5.59074C26.7485 5.58494 29.0783 6.1446 31.2115 7.16822C33.3448 8.19475 35.2726 9.70263 36.8219 11.5469C38.3712 13.3912 39.5302 15.5776 40.1963 17.9119C40.5338 19.0805 40.7333 20.2868 40.8213 21.4989C40.9006 22.7139 40.8507 23.9348 40.6864 25.1411C40.5103 26.3445 40.2139 27.5334 39.8002 28.6788C39.3777 29.8213 38.8466 30.9261 38.1981 31.9585C36.9041 34.0231 35.1816 35.8094 33.1775 37.1607C31.1763 38.512 28.9022 39.4341 26.5636 39.8401C24.2279 40.2431 21.8306 40.1445 19.627 39.5124C21.9186 39.5037 24.137 39.1557 26.1939 38.4308C28.2479 37.7145 30.1376 36.6474 31.7602 35.3019C33.38 33.9535 34.7415 32.3354 35.7509 30.5347C36.2556 29.6357 36.684 28.6962 37.0068 27.7219C37.3413 26.7504 37.5789 25.75 37.7198 24.7322C37.8694 23.7173 37.9164 22.6879 37.8694 21.6642C37.8313 20.6377 37.6816 19.6199 37.4498 18.6166C36.9804 16.6099 36.1265 14.6816 34.944 12.9446C33.7614 11.2076 32.2415 9.66494 30.4662 8.41803C28.691 7.16242 26.6546 6.2229 24.4539 5.59074Z" fill="white"/>
<path d="M5.94731 17.5872C5.94144 15.3195 6.50776 13.0171 7.54356 10.909C8.5823 8.80084 10.1081 6.89568 11.9743 5.3646C13.8406 3.83351 16.053 2.6881 18.4151 2.02985C19.5976 1.69637 20.8183 1.49919 22.0448 1.4122C23.2743 1.3339 24.5096 1.3832 25.7303 1.54559C26.948 1.71957 28.1511 2.01245 29.3101 2.42132C30.4662 2.83889 31.5842 3.36375 32.6288 4.0046C34.718 5.2834 36.5256 6.98557 37.8929 8.96613C39.2603 10.9438 40.1934 13.1911 40.6042 15.5022C41.0121 17.8105 40.9123 20.1796 40.2726 22.3573C40.2638 20.0926 39.9117 17.9004 39.1782 15.8676C38.4534 13.8378 37.3736 11.9703 36.0121 10.3667C34.6476 8.76604 33.0103 7.42054 31.1881 6.42302C30.2784 5.92425 29.3277 5.50089 28.3418 5.18191C27.3588 4.85134 26.3465 4.61645 25.3166 4.47726C24.2896 4.32938 23.2479 4.28298 22.2121 4.32938C21.1733 4.36707 20.1434 4.51496 19.1281 4.74404C17.0976 5.20801 15.1463 6.05185 13.3887 7.22046C11.631 8.38907 10.07 9.89116 8.80824 11.6455C7.53476 13.3999 6.58699 15.4123 5.94731 17.5872Z" fill="white"/>
<path d="M22.1277 36.9722L21.8166 30.8392C21.8166 30.8392 21.9986 30.0881 22.7703 30.6507C23.5449 31.2132 24.2022 31.3785 24.6864 31.3756C25.1705 31.3756 25.3554 31.393 25.3554 30.8885C25.3554 30.3839 24.6218 30.4825 24.39 30.3897C24.1582 30.2969 23.6975 29.8938 24.258 29.8677C24.8184 29.8387 25.417 29.8416 25.8806 29.8677C26.3443 29.8938 26.6993 29.6706 26.1007 29.3748C25.5021 29.079 24.3842 28.5686 25.2967 28.4874C26.2093 28.4063 27.9611 28.6121 29.3079 28.9601C30.6547 29.3081 31.4118 28.5309 30.9951 28.3541C30.5784 28.1772 29.2081 27.9858 29.4605 27.719C29.7128 27.4522 30.7193 27.139 30.6225 26.5678C30.5256 25.9965 30.3877 26.1241 29.7891 26.0719C29.1905 26.0197 28.6389 25.9704 28.8766 25.6283C29.1142 25.2832 29.4223 25.0599 29.2991 24.7322C29.1758 24.4046 28.3542 24.3698 27.8525 24.7322C27.3507 25.0947 26.7257 24.9178 26.2885 25.1556C25.8513 25.3934 25.2791 25.2165 25.8689 24.6162C26.4587 24.016 26.3912 23.7811 27.3038 23.7608C28.2163 23.7405 29.5426 24.0189 29.4634 23.2765C29.3842 22.5342 27.1336 22.7488 26.667 22.8619C26.2005 22.975 25.4405 23.3026 24.5602 23.3635C23.6799 23.4244 23.005 23.3084 23.2398 22.9373C23.4745 22.5661 23.7738 22.4849 24.6365 22.4849C25.4992 22.4849 26.2328 22.3747 27.1981 22.1282C28.1635 21.8817 29.4077 21.3772 29.5602 20.7653C29.7128 20.1535 29.305 19.8229 28.7474 19.7997C28.1899 19.7765 27.3947 19.8171 27.6442 19.3009C27.8965 18.7848 27.964 18.5151 27.6442 18.4426C27.3243 18.3701 26.8255 18.8892 26.3648 19.0052C25.9041 19.1241 24.5866 19.5851 24.3401 19.4227C24.0937 19.2603 24.0878 18.8921 24.5778 18.8196C25.0678 18.7471 26.2093 18.4832 26.3941 18.1613C26.579 17.8395 26.8783 17.2044 26.3824 17.0478C25.8865 16.8912 25.1559 16.6679 24.5103 17.0478C23.8648 17.4277 23.0637 17.8511 22.785 17.593C22.5062 17.3349 22.826 16.8854 23.2955 16.5809C23.765 16.2765 25.3495 16.1112 25.7809 15.9865C26.2122 15.8618 27.116 15.479 27.072 15.2963C27.025 15.1137 27.4388 14.4293 26.535 14.3162C25.6283 14.206 25.6606 14.0755 24.9651 14.1944C24.2697 14.3133 23.6124 14.1277 23.1224 14.5047C22.6324 14.8817 22.2597 15.7603 21.9282 15.8096C21.5936 15.8589 21.5496 15.276 21.9282 14.8643C22.3067 14.4554 22.5913 14.0378 22.6412 13.7885C22.6911 13.5391 23.1429 13.5014 23.4716 13.5507C23.8002 13.6 24.2345 13.6145 24.3871 13.2926C24.5397 12.9736 24.2844 12.3531 24.4458 11.9268C24.6072 11.5005 24.66 11.228 24.5103 11.0482C24.3607 10.8684 24.2433 11.3062 24.0056 10.8916C23.768 10.4769 23.812 10.3348 23.4775 10.3116C23.1429 10.2884 23.008 10.5842 22.5678 10.5494C22.1277 10.5146 21.1212 11.4541 21.1212 11.4541L21.1623 10.0651C21.1623 10.0651 21.8313 9.77226 21.8636 9.45329C21.8959 9.13431 21.4968 8.43257 21.2386 8.29918C20.9804 8.16579 20.2321 8.24118 19.9211 8.96323C19.6101 9.68527 20.2703 10.2362 20.373 10.2884C20.4757 10.3377 20.4903 12.0834 20.4903 12.0834C20.4903 12.0834 19.9064 11.6745 19.8389 11.3874C19.7714 11.1004 19.7626 10.7147 19.3049 10.8423C18.8471 10.967 18.718 11.486 18.5244 11.6339C18.3307 11.7818 18.2309 12.7126 17.6441 12.8083C17.0543 12.904 16.7667 13.0751 16.4117 13.3013C16.0566 13.5275 15.549 14.1103 15.0913 14.1103C14.6335 14.1103 13.7972 14.3046 13.7209 14.8295C13.6446 15.3572 13.8266 16.0387 14.789 15.711C15.7515 15.3833 16.8078 15.1311 17.3184 15.3369C17.826 15.5428 18.4833 15.9169 19.0379 16.3171C19.5895 16.7172 20.3935 17.3958 19.8067 17.6336C19.2198 17.8685 18.2544 17.419 17.4475 17.2798C16.6406 17.1406 16.1857 16.9637 15.2967 17.1406C14.4076 17.3175 13.3248 17.1928 13.2691 17.7061C13.2133 18.2193 14.255 18.0917 14.61 18.1816C14.9651 18.2715 15.5519 18.6717 16.2063 18.8225C16.8636 18.9733 17.2714 18.6079 17.647 18.8718C18.0226 19.1357 18.2691 19.5213 18.7415 19.5996C19.2169 19.6779 20.0766 19.8258 20.1852 20.0259C20.2938 20.226 20.37 20.6203 19.6981 20.5623C19.0261 20.5015 17.5971 19.9882 16.9956 20.0259C16.3941 20.0636 14.4985 20.0143 13.9322 20.1448C13.3659 20.2753 12.647 20.4638 12.8553 20.9712C13.0607 21.4787 14.076 21.528 14.3577 21.5541C14.6364 21.5802 14.6364 21.8122 15.0062 22.1949C15.3729 22.5777 15.5343 22.772 15.8454 22.9315C16.1564 23.0939 16.4322 23.4128 16.9457 23.6564C17.4592 23.9029 17.8788 24.2654 17.9287 24.5176C17.9786 24.7699 17.8084 25.0396 17.1981 24.8134C16.5877 24.5872 15.8014 24.3379 15.5226 24.3872C15.2438 24.4365 14.7861 24.738 14.9886 25.1904C15.191 25.6428 16.0302 25.5152 16.3853 25.6428C16.7403 25.7675 17.1599 25.9066 17.7497 26.0922C18.3395 26.2778 18.6858 26.1937 18.9176 26.3938C19.1523 26.5939 19.4722 26.7708 19.0848 26.997C18.6975 27.2231 17.9845 27.6755 17.4269 27.2724C16.8694 26.8723 16.5115 26.1734 15.9539 26.0342C15.3964 25.8921 14.0261 25.6167 13.3923 25.6689C12.7585 25.7182 12.5032 26.1966 12.5795 26.5475C12.6558 26.8984 13.1135 27.1506 13.7738 27.0984C14.434 27.0492 15.1001 27.545 15.3729 27.6001C15.6488 27.6552 15.4844 27.8959 16.039 28.2004C16.5936 28.5048 17.0572 28.7455 17.4035 28.934C17.7497 29.1254 18.6682 29.1602 18.5185 29.5459C18.3689 29.9315 17.5825 29.7054 17.4299 29.7575C17.2773 29.8068 16.4645 29.5749 16.0596 29.6271C15.6546 29.6822 15.059 30.5318 14.5308 30.1838C14.0026 29.8329 13.7503 29.6242 13.4715 29.6648C13.1928 29.7054 12.8935 30.3143 13.8266 30.9117C14.7597 31.5061 15.1705 31.915 16.1975 31.7265C17.2274 31.538 16.9604 31.0625 17.8172 31.1117C18.674 31.161 18.8706 31.422 19.2315 31.1175C19.5925 30.8131 20.0678 31.1639 20.0502 31.6917C20.0385 32.0397 19.9387 35.1105 19.8741 37.1433C20.059 37.1404 20.2439 37.1404 20.4287 37.1317C20.998 37.1114 21.5643 37.0534 22.1277 36.9722Z" fill="white"/>
<path d="M33.8327 29.8155C32.568 31.5699 31.0099 33.072 29.2522 34.2406C27.4946 35.4092 25.5433 36.2531 23.5128 36.717C23.055 36.8214 22.5943 36.9055 22.1278 36.9722C21.5644 37.0534 20.9981 37.1114 20.4288 37.1317C20.244 37.1404 20.0591 37.1404 19.8743 37.1433C19.0233 37.1549 18.1694 37.1056 17.3244 36.9838C16.2944 36.8446 15.2821 36.6068 14.2991 36.2792C13.3132 35.9602 12.3625 35.5368 11.4528 35.0381C9.63064 34.0405 7.99331 32.695 6.62886 31.0944C5.26442 29.4908 4.18753 27.6233 3.46276 25.5935C2.73212 23.5607 2.38001 21.3685 2.36827 19.1038C1.7286 21.2815 1.62883 23.6506 2.0367 25.9588C2.4475 28.27 3.3806 30.5173 4.74798 32.4949C6.11243 34.4755 7.92288 36.1777 10.0121 37.4565C11.0567 38.0973 12.1747 38.6193 13.3308 39.0398C14.4928 39.4486 15.6929 39.7386 16.9106 39.9155C18.1313 40.0779 19.3666 40.1272 20.5961 40.0489C21.8226 39.9619 23.0462 39.7647 24.2258 39.4312C26.5908 38.773 28.8004 37.6276 30.6666 36.0965C32.5328 34.5654 34.0586 32.6631 35.0974 30.5521C36.1361 28.444 36.6995 26.1415 36.6936 23.8739C36.051 26.0458 35.1032 28.0612 33.8327 29.8155Z" fill="white"/>
<path d="M44.9062 25.9455L47.7378 25.7019C47.8728 26.8241 48.1839 27.7433 48.6739 28.4625C49.1639 29.1816 49.9239 29.7616 50.9568 30.2052C51.9867 30.6489 53.1487 30.8693 54.4398 30.8693C55.5841 30.8693 56.5965 30.7011 57.4738 30.3647C58.3512 30.0283 59.0026 29.5673 59.431 28.9815C59.8594 28.3958 60.0736 27.7549 60.0736 27.0619C60.0736 26.3572 59.8682 25.7454 59.4545 25.2205C59.0407 24.6957 58.36 24.2549 57.4122 23.8982C56.8019 23.6633 55.458 23.3009 53.3746 22.805C51.2913 22.3091 49.83 21.8452 48.9967 21.4044C47.9139 20.8447 47.107 20.1488 46.5759 19.3166C46.0448 18.4843 45.7777 17.5564 45.7777 16.527C45.7777 15.3961 46.1034 14.3376 46.7519 13.3546C47.4004 12.3716 48.3511 11.6234 49.5982 11.1131C50.8453 10.6027 52.2332 10.3475 53.7619 10.3475C55.4433 10.3475 56.9251 10.6143 58.2103 11.1508C59.4955 11.6872 60.4815 12.4731 61.174 13.5141C61.8635 14.5551 62.2362 15.7324 62.289 17.046L59.4104 17.2606C59.2549 15.8426 58.7326 14.7726 57.8406 14.0506C56.9486 13.3256 55.6311 12.966 53.8881 12.966C52.0718 12.966 50.7484 13.2937 49.918 13.952C49.0876 14.6102 48.6739 15.4019 48.6739 16.3298C48.6739 17.1359 48.9673 17.7971 49.5571 18.319C50.1352 18.8381 51.6434 19.3717 54.0818 19.9168C56.5202 20.462 58.1957 20.9404 59.1024 21.3464C60.4228 21.9496 61.397 22.7093 62.0278 23.6314C62.6558 24.5536 62.9727 25.6178 62.9727 26.8212C62.9727 28.013 62.6264 29.1381 61.9369 30.1936C61.2444 31.2492 60.2526 32.0698 58.9586 32.6556C57.6645 33.2413 56.2062 33.5342 54.5865 33.5342C52.5325 33.5342 50.813 33.2384 49.4251 32.6469C48.0371 32.0553 46.9485 31.1651 46.1592 29.9791C45.364 28.7872 44.9473 27.4446 44.9062 25.9455Z" fill="white" stroke="white" stroke-width="1.65" stroke-miterlimit="10"/>
<path d="M65.834 33.1473V10.7291H68.8358V33.1473H65.834Z" fill="white" stroke="white" stroke-width="1.65" stroke-miterlimit="10"/>
<path d="M83.4749 24.3552V21.7251L93.0847 21.7106V30.0301C91.6087 31.1929 90.0888 32.0658 88.5189 32.6515C86.952 33.2373 85.3411 33.5302 83.692 33.5302C81.4649 33.5302 79.4402 33.0575 77.618 32.1151C75.7958 31.1726 74.4226 29.8097 73.4954 28.0235C72.5681 26.2401 72.1016 24.2451 72.1016 22.0441C72.1016 19.8635 72.5622 17.8249 73.4865 15.9343C74.4108 14.0436 75.7372 12.6401 77.4713 11.7209C79.2055 10.8017 81.2008 10.3435 83.4602 10.3435C85.1005 10.3435 86.5823 10.6074 87.9086 11.1322C89.2349 11.6571 90.2736 12.3879 91.0277 13.3274C91.7818 14.2669 92.354 15.4877 92.7443 16.9985L90.0359 17.7321C89.6956 16.5896 89.273 15.6936 88.7683 15.0412C88.2636 14.3887 87.5418 13.8667 86.6028 13.4724C85.6639 13.0809 84.6222 12.8837 83.4778 12.8837C82.1046 12.8837 80.9191 13.0896 79.9185 13.5043C78.9179 13.916 78.111 14.4612 77.4977 15.1339C76.8845 15.8067 76.4062 16.5461 76.0658 17.3523C75.4877 18.7384 75.2002 20.2434 75.2002 21.8643C75.2002 23.8623 75.5494 25.5355 76.2448 26.881C76.9402 28.2265 77.9555 29.2269 79.2847 29.8793C80.6169 30.5318 82.0283 30.8595 83.5247 30.8595C84.8246 30.8595 86.0923 30.613 87.3305 30.1171C88.5688 29.6213 89.5078 29.0964 90.1474 28.5338V24.3581H83.4749V24.3552Z" fill="white" stroke="white" stroke-width="1.65" stroke-miterlimit="10"/>
</svg>

<svg width="95" height="41" fill="none" xmlns="http://www.w3.org/2000/svg"><path d="M18.354 35.688c-2.295.005-4.625-.554-6.758-1.578a17.005 17.005 0 01-5.61-4.378 17.32 17.32 0 01-3.375-6.366 17.529 17.529 0 01-.625-3.59c-.08-1.215-.03-2.435.135-3.642a18.21 18.21 0 01.886-3.537 17.715 17.715 0 011.602-3.28 17.502 17.502 0 015.02-5.202 17.113 17.113 0 016.615-2.68c2.335-.403 4.733-.304 6.936.328-2.291.009-4.51.357-6.566 1.082a18.028 18.028 0 00-5.567 3.129 17.131 17.131 0 00-3.99 4.767A16.108 16.108 0 005.8 13.554a15.852 15.852 0 00-.713 2.99 16.018 16.018 0 00-.15 3.067 16.18 16.18 0 00.42 3.048 16.98 16.98 0 002.506 5.672 17.783 17.783 0 004.477 4.527c1.773 1.258 3.812 2.198 6.013 2.83zm6.1-30.098c2.294-.005 4.624.555 6.758 1.578a17.005 17.005 0 015.61 4.379 17.32 17.32 0 013.374 6.365c.338 1.169.537 2.375.625 3.587.08 1.215.03 2.436-.135 3.642a18.174 18.174 0 01-.886 3.538 17.713 17.713 0 01-1.602 3.28 17.503 17.503 0 01-5.02 5.202 17.114 17.114 0 01-6.614 2.68c-2.336.402-4.733.303-6.937-.329 2.292-.008 4.51-.356 6.567-1.081a18.028 18.028 0 005.566-3.13 17.13 17.13 0 003.99-4.766 16.11 16.11 0 001.257-2.813c.334-.972.572-1.972.713-2.99.15-1.015.196-2.044.15-3.068a16.21 16.21 0 00-.42-3.047 16.979 16.979 0 00-2.506-5.672 17.783 17.783 0 00-4.478-4.527c-1.775-1.256-3.811-2.195-6.012-2.827z" fill="#fff"/><path d="M5.947 17.587c-.006-2.268.56-4.57 1.597-6.678 1.038-2.108 2.564-4.013 4.43-5.544a17.669 17.669 0 016.441-3.335 18.095 18.095 0 013.63-.618 18.868 18.868 0 013.685.134c1.218.174 2.421.466 3.58.875 1.156.418 2.274.943 3.319 1.584a17.53 17.53 0 015.264 4.961 16.692 16.692 0 012.711 6.536c.408 2.309.308 4.678-.331 6.855-.01-2.264-.361-4.457-1.095-6.49a17.709 17.709 0 00-3.166-5.5 17.245 17.245 0 00-4.824-3.944c-.91-.499-1.86-.922-2.846-1.241a16.36 16.36 0 00-3.025-.705c-1.027-.148-2.07-.194-3.105-.148a16.776 16.776 0 00-3.084.415 17.39 17.39 0 00-5.74 2.476 17.798 17.798 0 00-4.58 4.426c-1.273 1.754-2.221 3.766-2.86 5.941z" fill="#fff"/><path d="M22.128 36.972l-.311-6.133s.182-.75.953-.188c.775.562 1.432.727 1.916.725.485 0 .67.017.67-.488 0-.504-.734-.405-.966-.498-.232-.093-.692-.496-.132-.522.56-.03 1.159-.026 1.623 0 .463.026.818-.197.22-.493-.599-.296-1.717-.806-.804-.888.912-.08 2.664.125 4.01.473 1.348.348 2.105-.43 1.688-.606-.417-.177-1.787-.368-1.535-.635.253-.267 1.26-.58 1.162-1.151-.096-.572-.234-.444-.833-.496-.599-.052-1.15-.102-.912-.444.237-.345.545-.568.422-.896-.123-.327-.945-.362-1.447 0-.501.363-1.126.186-1.564.424-.437.237-1.009.06-.42-.54.59-.6.523-.835 1.436-.855.912-.02 2.239.258 2.16-.485-.08-.742-2.33-.527-2.797-.414-.466.113-1.227.44-2.107.502-.88.06-1.555-.056-1.32-.427.235-.37.534-.452 1.397-.452.862 0 1.596-.11 2.561-.357.965-.246 2.21-.75 2.362-1.363.153-.611-.255-.942-.813-.965-.557-.024-1.352.017-1.103-.5.253-.515.32-.785 0-.857-.32-.073-.818.446-1.28.562-.46.12-1.777.58-2.024.418-.246-.163-.252-.53.238-.603.49-.073 1.631-.337 1.816-.659.185-.322.484-.957-.012-1.113-.495-.157-1.226-.38-1.872 0-.645.38-1.446.803-1.725.545-.279-.258.041-.708.51-1.012.47-.305 2.054-.47 2.486-.595.431-.124 1.335-.507 1.291-.69-.047-.182.367-.867-.537-.98-.907-.11-.874-.24-1.57-.122-.695.12-1.353-.066-1.843.31-.49.378-.862 1.256-1.194 1.306-.334.049-.378-.534 0-.946.379-.409.663-.826.713-1.075.05-.25.502-.288.83-.238.33.049.764.063.916-.258.153-.32-.103-.94.059-1.366.161-.426.214-.699.064-.879-.15-.18-.267.258-.504-.156-.238-.415-.194-.557-.529-.58-.334-.024-.469.272-.91.237-.44-.034-1.446.905-1.446.905l.041-1.389s.67-.293.702-.612c.032-.319-.367-1.02-.625-1.154-.259-.133-1.007-.058-1.318.664-.31.722.35 1.273.452 1.325.103.05.117 1.795.117 1.795s-.584-.409-.651-.696c-.068-.287-.076-.672-.534-.545-.458.125-.587.644-.78.792-.194.148-.294 1.079-.88 1.174-.59.096-.878.267-1.233.493-.355.226-.863.81-1.32.81-.459 0-1.295.194-1.371.718-.076.528.106 1.21 1.068.882.963-.328 2.019-.58 2.53-.374.507.206 1.164.58 1.719.98.552.4 1.355 1.079.769 1.317-.587.235-1.553-.215-2.36-.354-.806-.14-1.261-.316-2.15-.14-.89.177-1.972.053-2.028.566-.056.513.986.386 1.341.476.355.09.942.49 1.596.64.658.151 1.065-.214 1.441.05.376.264.622.65 1.095.728.475.078 1.335.226 1.443.426.109.2.185.594-.487.536-.672-.06-2.1-.574-2.702-.536-.602.038-2.497-.012-3.064.119-.566.13-1.285.319-1.077.826.206.508 1.221.557 1.503.583.278.026.278.258.648.64.367.384.528.578.84.738.31.162.586.48 1.1.724.513.247.933.61.983.862.05.252-.12.522-.73.295-.611-.226-1.398-.475-1.676-.426-.28.05-.737.351-.534.803.202.453 1.041.325 1.396.453.355.124.775.264 1.365.45.59.185.936.1 1.168.3.234.2.554.378.167.604-.387.226-1.1.678-1.658.275-.558-.4-.915-1.099-1.473-1.238-.558-.142-1.928-.417-2.562-.365-.633.05-.889.528-.813.878.077.351.534.604 1.195.551.66-.049 1.326.447 1.599.502.276.055.111.296.666.6.555.305 1.018.546 1.364.734.347.191 1.265.226 1.116.612-.15.386-.936.16-1.09.212-.152.049-.964-.183-1.37-.13-.404.054-1 .904-1.528.556-.528-.351-.78-.56-1.06-.52-.278.041-.578.65.356 1.248.933.594 1.344 1.003 2.37.815 1.03-.189.763-.665 1.62-.615.857.049 1.054.31 1.415.006.36-.305.836.046.818.574l-.176 5.451c.185-.003.37-.003.555-.011.569-.02 1.135-.079 1.699-.16z" fill="#fff"/><path d="M33.833 29.816a17.844 17.844 0 01-4.58 4.425 17.389 17.389 0 01-5.74 2.476c-.458.104-.919.189-1.385.255-.564.081-1.13.14-1.7.16-.184.008-.369.008-.554.011a16.321 16.321 0 01-2.55-.16 16.602 16.602 0 01-3.025-.704 16.503 16.503 0 01-2.846-1.24 17.247 17.247 0 01-4.824-3.945 17.65 17.65 0 01-3.166-5.5c-.73-2.033-1.083-4.226-1.095-6.49-.64 2.178-.74 4.547-.331 6.855a16.691 16.691 0 002.711 6.536 17.496 17.496 0 005.264 4.962 18.304 18.304 0 003.319 1.583c1.162.409 2.362.699 3.58.876 1.22.162 2.456.211 3.685.133a18.059 18.059 0 003.63-.618 17.644 17.644 0 006.44-3.334c1.867-1.532 3.393-3.434 4.431-5.545 1.04-2.108 1.602-4.41 1.597-6.678-.643 2.172-1.59 4.187-2.861 5.942z" fill="#fff"/><path d="M44.906 25.945l2.832-.243c.135 1.122.446 2.041.936 2.76.49.72 1.25 1.3 2.283 1.743 1.03.444 2.192.664 3.483.664 1.144 0 2.157-.168 3.034-.504.877-.337 1.529-.798 1.957-1.383a3.184 3.184 0 00.643-1.92c0-.705-.206-1.317-.62-1.841-.413-.525-1.094-.966-2.042-1.323-.61-.235-1.954-.597-4.037-1.093-2.084-.496-3.545-.96-4.378-1.4-1.083-.56-1.89-1.256-2.421-2.088a5.074 5.074 0 01-.798-2.79c0-1.13.325-2.19.974-3.172.648-.983 1.6-1.732 2.846-2.242 1.247-.51 2.635-.765 4.164-.765 1.681 0 3.163.266 4.448.803 1.285.536 2.271 1.322 2.964 2.363.69 1.041 1.062 2.218 1.115 3.532l-2.879.215c-.155-1.418-.677-2.488-1.57-3.21-.891-.725-2.209-1.085-3.952-1.085-1.816 0-3.14.328-3.97.986-.83.658-1.244 1.45-1.244 2.378 0 .806.293 1.467.883 1.989.578.52 2.086 1.053 4.525 1.598 2.438.545 4.114 1.023 5.02 1.43 1.32.603 2.295 1.362 2.926 2.284.628.923.945 1.987.945 3.19 0 1.192-.347 2.317-1.036 3.373-.693 1.055-1.684 1.876-2.978 2.462-1.295.585-2.753.878-4.373.878-2.053 0-3.773-.296-5.16-.887-1.389-.592-2.477-1.482-3.267-2.668-.795-1.192-1.212-2.534-1.253-4.034zm20.928 7.202V10.73h3.002v22.418h-3.002zm17.641-8.792v-2.63l9.61-.014v8.32c-1.476 1.162-2.996 2.035-4.566 2.62a13.686 13.686 0 01-4.827.88c-2.227 0-4.252-.474-6.074-1.416s-3.195-2.305-4.123-4.092c-.927-1.783-1.393-3.778-1.393-5.979 0-2.18.46-4.22 1.385-6.11.924-1.89 2.25-3.294 3.984-4.213 1.734-.92 3.73-1.377 5.99-1.377 1.64 0 3.121.263 4.448.788 1.326.525 2.365 1.256 3.119 2.195.754.94 1.326 2.16 1.716 3.671l-2.708.734c-.34-1.142-.763-2.038-1.268-2.69-.504-.653-1.226-1.175-2.165-1.57-.94-.391-1.98-.588-3.125-.588-1.373 0-2.559.206-3.56.62-1 .412-1.807.957-2.42 1.63a7.762 7.762 0 00-1.432 2.218c-.578 1.386-.866 2.891-.866 4.512 0 1.998.35 3.671 1.045 5.017.695 1.346 1.71 2.346 3.04 2.998a9.51 9.51 0 004.24.98c1.3 0 2.567-.246 3.805-.742 1.239-.496 2.178-1.02 2.817-1.583v-4.176h-6.672v-.003z" fill="#fff" stroke="#fff" stroke-width="1.65" stroke-miterlimit="10"/></svg>
